X:1
T:Hear the Gospel Call
T:Hear the Gospel Call
T:L. Pinckney Huggins
T:L. Pinckney Huggins, 1898
T:Public Domain Courtesy of the Cyber Hymnal™
T:Public Domain Courtesy of the Cyber Hymnal™
C:L. Pinckney Huggins
Z:Public Domain
Z:Courtesy of the Cyber Hymnal™
%%score ( 1 2 ) ( 3 4 )
L:1/8
Q:1/4=103
M:4/4
K:G
V:1 treble 
V:2 treble 
V:3 bass 
V:4 bass 
V:1
 [Gd]2 [Ge]>[Gd] [GB]2 [DG]>[DA] | [GB]4 [DG]4 | [DG]2 [DG]>[DG] [DG]2 [DF]>[DG] | [FA]6 z2 | %4
w: 1.~Sin- ners, the mes- sage is|sound- ing,|Je- sus is speak- ing to|thee;|
w: 2.~Je- sus has car- ried your|sor- rows,|Je- sus has borne all your|grief;|
w: 3.~Come with your sins to the|Sav- ior,|Come un- to Him while you|may;|
w: 4.~Sin- ners, while Je- sus is|wait- ing,|Wait- ing to free- ly for-|give,|
 [GB]2 [GB]>[GA] [DG]2 [DB]>[Dc] | [Gd]4 [GB]4 | [Gc]2 G>[GA] [GB]2 [GB]>[FA] | G6 || %8
w: List while He’s ten- der- ly|say- ing,|“Wea- ry one, come un- to|Me.”|
w: Now un- to you He is|call- ing,|“Come, and I’ll give you re-|lief.”|
w: This is the mes- sage He|sends you,|“Come and be- lieve Me to-|day.”|
w: Come and ac- cept of His|mer- cy,|Trust Him, be- lieve Him and|live.|
"^Refrain" d>^c | (z2 [Ed]>)d e>d x2 | z3/2 [GB]2 [GB]>[FA] x5/2 | [GB]4- [GB]>[Bd] [Bd]>[GB] | %12
w: ||||
w: Hear, O|* hear the Gos-|* pel call;|* * Come to Christ,|
w: ||||
w: ||||
 A4- [FA]2 B>d | z2 [EG]>G E>G x2 | z3/2 [Gc]2 [Gc]>[Gc] x5/2 | [GB]3 [DG] [GB]2 [FA]2 | %16
w: ||||
w: be- fore Him fall;|* He has said|* if you|* be- lieve, Life|
w: ||||
w: ||||
 !fermata!G6 !fermata!z2 |] %17
w: |
w: e-|
w: |
w: |
V:2
 x8 | x8 | x8 | x8 | x8 | x8 | x2 G3/2 x9/2 | G6 || x2 | d4- E3/2 E/ x2 | B4- G<G G/ x3/2 | x8 | %12
 F>FF>F x4 | G4- E3/2 E/ x2 | c4- G<G G/ x3/2 | x8 | (G2 E2 D2) x2 |] %17
V:3
 [G,B,]2 [G,C]>[G,B,] [G,D]2 [G,B,]>[G,C] | [G,D]4 [G,B,]4 | %2
w: ||
 [G,B,]2 [G,B,]>[G,B,] [B,D]2 [A,C]>[G,B,] | [D,D]6 z2 | [G,D]2 [G,D]>[G,C] [G,B,]2 G,>[G,A,] | %5
w: ||* * * * Hear, *|
 [G,B,]4 [G,D]4 | [E,C]2 [B,,D]>[C,E] [D,D]2 [D,D]>[D,C] | [G,,G,B,]6 || z2 | %9
w: ||||
 z2 [G,B,]>[G,B,] [G,B,]3/2 z/ z2 | z3/2 [G,D]/ [G,D]>[G,D] [G,D]2 z2 | %11
w: O hear the|Gos- pel call, Come|
 z2 [G,D]>[G,D] [G,D]3/2 z/ z2 | z3/2 [D,D]/ [D,D]>[D,D] [D,D]2 z2 | %13
w: to Christ, be-|fore Him fall; He|
 z2 [E,B,]>[E,B,] [E,B,]3/2 z/ z2 | z3/2 [C,E]/ [C,E]>[C,E] [C,E]2 [C,E]>[C,E] | %15
w: has said if|you be- lieve, Life e- ter-|
 [D,D]3 [D,B,] [D,D]2 [D,C]2 | (!fermata!B,2 C2 !fermata!B,2) z2 |] %17
w: nal you shall have,|shall * *|
V:4
 x8 | x8 | x8 | x8 | x6 G,3/2 x/ | x8 | x8 | x6 || x2 | x8 | x8 | x8 | x8 | x8 | x8 | x8 | %16
 G,,6 x2 |] %17

